static/img/pictures/vision/4.svg

<svg width="61" height="68" xmlns="http://www.w3.org/2000/svg"><defs><linearGradient x1="-6.48%" y1="91.037%" x2="103.842%" y2="-6.895%" id="a"><stop stop-color="#4AFDCB" offset="0%"/><stop stop-color="#5DA5FD" offset="100%"/></linearGradient></defs><path d="M30.4 67.8c16.7 0 30.4-13.6 30.4-30.4v-28c0-2.5-1-4.9-2.8-6.7C56.2 1 53.8 0 51.3 0c-2.8 0-5.3 1.2-7 3.1l-.3-.3C42.2 1 39.8 0 37.3 0c-2.8 0-5.3 1.2-7 3.1l-.3-.3C28.3 1 25.9 0 23.4 0c-2.8 0-5.3 1.2-7 3.1-1.7-1.9-4.2-3.1-7-3.1C4.2 0 0 4.2 0 9.4v28c0 16.8 13.6 30.4 30.4 30.4zM46.7 9.4c0-2.5 2-4.5 4.5-4.5 1.2 0 2.4.5 3.2 1.3.9.9 1.3 2 1.3 3.2v12.1h-9.1V9.4h.1zm-13.9 0c0-2.5 2-4.5 4.5-4.5 1.2 0 2.4.5 3.2 1.3.9.9 1.3 2 1.3 3.2v12.2h-9.1V9.4h.1zm-14 0c0-2.5 2-4.5 4.5-4.5 1.2 0 2.4.5 3.2 1.3.9.9 1.3 2 1.3 3.2v12.2h-5V24c0 1.4.2 2.8.5 4.1-2.5 0-4.5-2-4.5-4.5V9.4zM4.9 19.6V9.4c0-2.5 2-4.5 4.5-4.5s4.5 2 4.5 4.5v14.1c0 2.5-2 4.5-4.5 4.5s-4.5-2-4.5-4.5v-3.9zm0 12.2c1.3.7 2.9 1.2 4.5 1.2 2.8 0 5.3-1.2 7-3.1 1.7 1.9 4.2 3.1 7 3.1.6 0 1.3-.1 1.9-.2 1.6 2.8 3.9 5.1 6.7 6.6-4.2.8-7.3 4.4-7.3 8.8v5.1H27v-5.1c0-3.6 2.9-6.6 6.6-6.6h14.5v-4.9h-7.5c-6.2 0-11.4-4.5-12.5-10.3h27.8v10.9c0 14-11.4 25.5-25.5 25.5S4.9 51.5 4.9 37.4v-5.6z" fill="url(#a)"/></svg>

<?xml version="1.0" encoding="UTF-8"?>
<svg width="61px" height="68px" viewBox="0 0 61 68" version="1.1" xmlns="http://www.w3.org/2000/svg" xmlns:xlink="http://www.w3.org/1999/xlink">
    <!-- Generator: sketchtool 49.1 (51147) - http://www.bohemiancoding.com/sketch -->
    <title>54F180C2-2E04-4AC6-AE0E-DEA48489D9E2</title>
    <desc>Created with sketchtool.</desc>
    <defs>
        <linearGradient x1="-6.47976974%" y1="91.0367257%" x2="103.841612%" y2="-6.89528024%" id="linearGradient-1">
            <stop stop-color="#4AFDCB" offset="0%"></stop>
            <stop stop-color="#5DA5FD" offset="100%"></stop>
        </linearGradient>
    </defs>
    <g id="Page-1" stroke="none" stroke-width="1" fill="none" fill-rule="evenodd">
        <g id="Landing-page" transform="translate(-1016.000000, -1513.000000)" fill="url(#linearGradient-1)" fill-rule="nonzero">
            <g id="vision" transform="translate(210.000000, 1093.000000)">
                <g id="Group-40" transform="translate(800.000000, 214.000000)">
                    <g id="Group-28" transform="translate(6.000000, 198.000000)">
                        <g id="vision-icons_edit_outline-03" transform="translate(0.000000, 8.000000)">
                            <path d="M30.4,67.8 C47.1,67.8 60.8,54.2 60.8,37.4 L60.8,35.1 L60.8,23.6 L60.8,21.6 L60.8,19.6 L60.8,9.4 C60.8,6.9 59.8,4.5 58,2.7 C56.2,1 53.8,0 51.3,0 C48.5,0 46,1.2 44.3,3.1 C44.2,3 44.1,2.9 44,2.8 C42.2,1 39.8,0 37.3,0 C34.5,0 32,1.2 30.3,3.1 C30.2,3 30.1,2.9 30,2.8 C28.3,1 25.9,0 23.4,0 C20.6,0 18.1,1.2 16.4,3.1 C14.7,1.2 12.2,0 9.4,0 C4.2,0 0,4.2 0,9.4 L0,19.5 L0,23.5 L0,37.4 C0,54.2 13.6,67.8 30.4,67.8 Z M46.7,9.4 C46.7,6.9 48.7,4.9 51.2,4.9 C52.4,4.9 53.6,5.4 54.4,6.2 C55.3,7.1 55.7,8.2 55.7,9.4 L55.7,19.5 L55.7,21.5 L46.6,21.5 L46.6,9.4 L46.7,9.4 Z M32.8,9.4 C32.8,6.9 34.8,4.9 37.3,4.9 C38.5,4.9 39.7,5.4 40.5,6.2 C41.4,7.1 41.8,8.2 41.8,9.4 L41.8,21.6 L32.7,21.6 L32.7,9.4 L32.8,9.4 Z M18.8,9.4 C18.8,6.9 20.8,4.9 23.3,4.9 C24.5,4.9 25.7,5.4 26.5,6.2 C27.4,7.1 27.8,8.2 27.8,9.4 L27.8,21.6 L22.8,21.6 L22.8,24 C22.8,25.4 23,26.8 23.3,28.1 C23.3,28.1 23.3,28.1 23.3,28.1 C20.8,28.1 18.8,26.1 18.8,23.6 L18.8,9.4 Z M4.9,19.6 L4.9,9.4 C4.9,6.9 6.9,4.9 9.4,4.9 C11.9,4.9 13.9,6.9 13.9,9.4 L13.9,23.5 C13.9,26 11.9,28 9.4,28 C6.9,28 4.9,26 4.9,23.5 L4.9,19.6 Z M4.9,31.8 C6.2,32.5 7.8,33 9.4,33 C12.2,33 14.7,31.8 16.4,29.9 C18.1,31.8 20.6,33 23.4,33 C24,33 24.7,32.9 25.3,32.8 C26.9,35.6 29.2,37.9 32,39.4 C27.8,40.2 24.7,43.8 24.7,48.2 L24.7,53.3 L27,53.3 L27,48.2 C27,44.6 29.9,41.6 33.6,41.6 L40.4,41.6 C40.5,41.6 40.5,41.6 40.6,41.6 L48.1,41.6 L48.1,36.7 L40.6,36.7 C34.4,36.7 29.2,32.2 28.1,26.4 L55.9,26.4 L55.9,35 L55.9,37.3 C55.9,51.3 44.5,62.8 30.4,62.8 C16.3,62.8 4.9,51.5 4.9,37.4 L4.9,31.8 Z" id="Shape"></path>
                        </g>
                    </g>
                </g>
            </g>
        </g>
    </g>
</svg>
